X:1
T: Highland Whisky
C:Niel Gow
R:Strathspey
Q: 128
K:A
M:4/4
L:1/16
|:E2|AAA2 A4 A3B ce3|BBB2 B3c d3e fa3|AAA2 A4 A3B c3d|e2fg a3c B4 A2E2|
AAA2 A4 A3B ce3|BBB2 B3c d3e fa3|AAA2 A4 A3B c3d|e2fg a3c B4 A2e2|
cBA2 e3A f3A e3A|GB3 B3A GB3 B3e|dcBA e3A f3A e3c|e2fg a3c B4 A3e|
cBA2 e3A f3A e3A|GB3 B3A GB3 B3c|Ac3 Bd3 ce3 df3|e2fg a3c B4A2:|
